icon/ir/keyframes-couple.svg

<svg stroke-width="1.5" viewBox="0 0 24 24" fill="none" xmlns="http://www.w3.org/2000/svg" height="1em" width="1em">
  <path d="M15.8189 13.3287L10.4948 19.3183C9.69924 20.2134 8.30076 20.2134 7.50518 19.3183L2.18109 13.3287C1.50752 12.571 1.50752 11.429 2.18109 10.6713L7.50518 4.68167C8.30076 3.78664 9.69924 3.78664 10.4948 4.68167L15.8189 10.6713C16.4925 11.429 16.4925 12.571 15.8189 13.3287Z" stroke="currentColor" stroke-linecap="round" stroke-linejoin="round"/>
  <path d="M12 6.375L13.5052 4.68167C14.3008 3.78664 15.6992 3.78664 16.4948 4.68167L21.8189 10.6713C22.4925 11.429 22.4925 12.571 21.8189 13.3287L16.4948 19.3183C15.6992 20.2134 14.3008 20.2134 13.5052 19.3183L12 17.625" stroke="currentColor" stroke-linecap="round" stroke-linejoin="round"/>
</svg>

<svg width="24" height="24" stroke-width="1.5" fill="none" xmlns="http://www.w3.org/2000/svg"><path d="m15.819 13.329-5.324 5.99a2 2 0 0 1-2.99 0l-5.324-5.99a2 2 0 0 1 0-2.658l5.324-5.99a2 2 0 0 1 2.99 0l5.324 5.99a2 2 0 0 1 0 2.658Z" stroke="currentColor" stroke-linecap="round" stroke-linejoin="round"/><path d="m12 6.375 1.505-1.693a2 2 0 0 1 2.99 0l5.324 5.99a2 2 0 0 1 0 2.657l-5.324 5.99a2 2 0 0 1-2.99 0L12 17.624" stroke="currentColor" stroke-linecap="round" stroke-linejoin="round"/></svg>
